apps/promisedeconstructed/public/images/next-btn.svg

<svg width="22" height="32" viewBox="0 0 22 32" fill="none" xmlns="http://www.w3.org/2000/svg">
<path d="M10.6508 9.24074C10.2315 8.88132 9.60017 8.92988 9.24074 9.34921C8.88132 9.76853 8.92988 10.3998 9.34921 10.7593L10 10L10.6508 9.24074ZM10.0759 10.0651L9.42513 10.8243L9.52182 10.9072L9.6362 10.9632L10.0759 10.0651ZM11.5205 11.1072L10.5792 11.4449L11.5205 11.1072ZM11.6662 11.5134L12.6075 11.1758L11.6662 11.5134ZM12.405 12.3802L12.5254 11.3874L12.405 12.3802ZM13.2998 12.4887L13.1793 13.4814L13.2998 12.4887ZM13.9259 12.9107L14.8253 12.4735L13.9259 12.9107ZM14.2834 13.646L15.1828 13.2088L14.2834 13.646ZM14.8302 14.1605L15.2006 13.2316L14.8302 14.1605ZM15.5664 14.454L15.1961 15.3829L15.5664 14.454ZM16.111 14.9712L17.0138 14.5412L16.111 14.9712ZM16.4638 15.712L15.5609 16.142L16.4638 15.712ZM16.4367 16.2113L16.9717 17.0562L16.4367 16.2113ZM16.0296 16.4691L15.4946 15.6242L16.0296 16.4691ZM15.5571 16.8603L14.8589 16.1444L15.5571 16.8603ZM14.4239 17.8432L14.9388 18.7005L14.4239 17.8432ZM13.7718 18.2349L13.257 17.3776L13.7718 18.2349ZM13.1959 18.7155L12.4442 18.056L13.1959 18.7155ZM12.6963 19.285L13.448 19.9445L12.6963 19.285ZM12.2675 19.9372L13.1666 20.375L12.2675 19.9372ZM12.0886 20.3046L12.9876 20.7425L12.0886 20.3046ZM11.9096 20.6721L11.0106 20.2342L11.9096 20.6721ZM11.3714 21.1966L10.9709 20.2803L11.3714 21.1966ZM10.6528 21.5106L10.2523 20.5943L10.6528 21.5106ZM10.2201 21.7507L9.47049 21.0889L10.2201 21.7507ZM10.1467 21.8338L9.39713 21.1719L9.35991 21.2141L9.32764 21.2602L10.1467 21.8338ZM10.0759 21.9349L10.7267 22.6942L10.8226 22.612L10.895 22.5086L10.0759 21.9349ZM9.34921 21.2407C8.92988 21.6002 8.88132 22.2315 9.24074 22.6508C9.60017 23.0701 10.2315 23.1187 10.6508 22.7593L10 22L9.34921 21.2407ZM10 10L9.34921 10.7593L9.42513 10.8243L10.0759 10.0651L10.7267 9.30582L10.6508 9.24074L10 10ZM10.0759 10.0651L9.6362 10.9632L10.2856 11.2812L10.7253 10.383L11.1651 9.48491L10.5157 9.16695L10.0759 10.0651ZM10.7253 10.383L10.2856 11.2812C10.4443 11.3589 10.5323 11.423 10.5755 11.4624C10.6164 11.4997 10.5977 11.4965 10.5792 11.4449L11.5205 11.1072L12.4618 10.7696C12.2334 10.1331 11.6834 9.73871 11.1651 9.48491L10.7253 10.383ZM11.5205 11.1072L10.5792 11.4449L10.7249 11.8511L11.6662 11.5134L12.6075 11.1758L12.4618 10.7696L11.5205 11.1072ZM11.6662 11.5134L10.7249 11.8511L10.8706 12.2573L11.8119 11.9197L12.7532 11.582L12.6075 11.1758L11.6662 11.5134ZM11.8119 11.9197L10.8706 12.2573C10.9735 12.5442 11.1494 12.8179 11.4198 13.0278C11.6878 13.2359 11.992 13.3374 12.2846 13.3729L12.405 12.3802L12.5254 11.3874C12.5198 11.3868 12.576 11.3934 12.6463 11.448C12.7189 11.5044 12.7474 11.566 12.7532 11.582L11.8119 11.9197ZM12.405 12.3802L12.2846 13.3729L12.732 13.4272L12.8524 12.4344L12.9728 11.4417L12.5254 11.3874L12.405 12.3802ZM12.8524 12.4344L12.732 13.4272L13.1793 13.4814L13.2998 12.4887L13.4202 11.496L12.9728 11.4417L12.8524 12.4344ZM13.2998 12.4887L13.1793 13.4814C13.2017 13.4841 13.171 13.4842 13.1211 13.4506C13.0972 13.4345 13.0755 13.4149 13.0578 13.394C13.0403 13.3735 13.0307 13.3565 13.0265 13.3479L13.9259 12.9107L14.8253 12.4735C14.5405 11.8876 14.0147 11.5681 13.4202 11.496L13.2998 12.4887ZM13.9259 12.9107L13.0265 13.3479L13.2053 13.7156L14.1046 13.2783L15.004 12.8411L14.8253 12.4735L13.9259 12.9107ZM14.1046 13.2783L13.2053 13.7156L13.384 14.0832L14.2834 13.646L15.1828 13.2088L15.004 12.8411L14.1046 13.2783ZM14.2834 13.646L13.384 14.0832C13.6083 14.5446 13.9751 14.8961 14.4599 15.0894L14.8302 14.1605L15.2006 13.2316C15.1933 13.2287 15.1905 13.2269 15.1909 13.2271C15.1914 13.2274 15.1929 13.2285 15.1947 13.2301C15.1964 13.2318 15.1964 13.2321 15.1948 13.2299C15.193 13.2275 15.1887 13.221 15.1828 13.2088L14.2834 13.646ZM14.8302 14.1605L14.4599 15.0894L14.828 15.2361L15.1983 14.3073L15.5687 13.3784L15.2006 13.2316L14.8302 14.1605ZM15.1983 14.3073L14.828 15.2361L15.1961 15.3829L15.5664 14.454L15.9368 13.5251L15.5687 13.3784L15.1983 14.3073ZM15.5664 14.454L15.1961 15.3829C15.2027 15.3856 15.2047 15.387 15.2036 15.3863C15.2025 15.3856 15.2002 15.384 15.1979 15.3818C15.1957 15.3796 15.1953 15.3788 15.1967 15.3807C15.1981 15.3827 15.2023 15.389 15.2081 15.4012L16.111 14.9712L17.0138 14.5412C16.7921 14.0757 16.4252 13.7199 15.9368 13.5251L15.5664 14.454ZM16.111 14.9712L15.2081 15.4012L15.3845 15.7716L16.2874 15.3416L17.1902 14.9116L17.0138 14.5412L16.111 14.9712ZM16.2874 15.3416L15.3845 15.7716L15.5609 16.142L16.4638 15.712L17.3666 15.282L17.1902 14.9116L16.2874 15.3416ZM16.4638 15.712L15.5609 16.142C15.5888 16.2005 15.5381 16.126 15.5467 15.9678C15.5516 15.8763 15.577 15.7568 15.6472 15.6343C15.7182 15.5105 15.8127 15.4228 15.9017 15.3665L16.4367 16.2113L16.9717 17.0562C17.3248 16.8325 17.5225 16.468 17.5437 16.0763C17.5614 15.7517 17.4563 15.4704 17.3666 15.282L16.4638 15.712ZM16.4367 16.2113L15.9017 15.3665L15.6981 15.4953L16.2331 16.3402L16.7681 17.185L16.9717 17.0562L16.4367 16.2113ZM16.2331 16.3402L15.6981 15.4953L15.4946 15.6242L16.0296 16.4691L16.5646 17.3139L16.7681 17.185L16.2331 16.3402ZM16.0296 16.4691L15.4946 15.6242C15.2771 15.7619 15.0636 15.9447 14.8589 16.1444L15.5571 16.8603L16.2552 17.5762C16.4092 17.4261 16.5107 17.3481 16.5646 17.3139L16.0296 16.4691ZM15.5571 16.8603L14.8589 16.1444L14.5898 16.4068L15.288 17.1227L15.9862 17.8386L16.2552 17.5762L15.5571 16.8603ZM15.288 17.1227L14.5898 16.4068L14.3208 16.6691L15.019 17.385L15.7172 18.101L15.9862 17.8386L15.288 17.1227ZM15.019 17.385L14.3208 16.6691C14.1976 16.7893 14.0609 16.8948 13.9091 16.986L14.4239 17.8432L14.9388 18.7005C15.2217 18.5306 15.4817 18.3306 15.7172 18.101L15.019 17.385ZM14.4239 17.8432L13.9091 16.986L13.583 17.1818L14.0979 18.0391L14.6127 18.8963L14.9388 18.7005L14.4239 17.8432ZM14.0979 18.0391L13.583 17.1818L13.257 17.3776L13.7718 18.2349L14.2867 19.0921L14.6127 18.8963L14.0979 18.0391ZM13.7718 18.2349L13.257 17.3776C12.9512 17.5612 12.6793 17.788 12.4442 18.056L13.1959 18.7155L13.9477 19.3749C14.0457 19.2632 14.1577 19.1696 14.2867 19.0921L13.7718 18.2349ZM13.1959 18.7155L12.4442 18.056L12.1944 18.3407L12.9461 19.0002L13.6978 19.6597L13.9477 19.3749L13.1959 18.7155ZM12.9461 19.0002L12.1944 18.3407L11.9446 18.6255L12.6963 19.285L13.448 19.9445L13.6978 19.6597L12.9461 19.0002ZM12.6963 19.285L11.9446 18.6255C11.7148 18.8874 11.5237 19.1805 11.3685 19.4993L12.2675 19.9372L13.1666 20.375C13.2499 20.2039 13.3447 20.0623 13.448 19.9445L12.6963 19.285ZM12.2675 19.9372L11.3685 19.4993L11.1895 19.8668L12.0886 20.3046L12.9876 20.7425L13.1666 20.375L12.2675 19.9372ZM12.0886 20.3046L11.1895 19.8668L11.0106 20.2342L11.9096 20.6721L12.8087 21.1099L12.9876 20.7425L12.0886 20.3046ZM11.9096 20.6721L11.0106 20.2342C10.997 20.2621 10.9879 20.2706 10.9877 20.2707C10.987 20.2713 10.9863 20.272 10.9847 20.273C10.9831 20.2741 10.9789 20.2767 10.9709 20.2803L11.3714 21.1966L11.7718 22.1129C12.239 21.9087 12.5901 21.5587 12.8087 21.1099L11.9096 20.6721ZM11.3714 21.1966L10.9709 20.2803L10.6116 20.4373L11.0121 21.3536L11.4125 22.2699L11.7718 22.1129L11.3714 21.1966ZM11.0121 21.3536L10.6116 20.4373L10.2523 20.5943L10.6528 21.5106L11.0532 22.4269L11.4125 22.2699L11.0121 21.3536ZM10.6528 21.5106L10.2523 20.5943C10.1182 20.6529 9.99046 20.7133 9.87968 20.7748C9.80018 20.8189 9.61778 20.9221 9.47049 21.0889L10.2201 21.7507L10.9697 22.4126C10.9361 22.4506 10.9068 22.477 10.8889 22.4922C10.8702 22.508 10.8559 22.5183 10.8488 22.5233C10.8355 22.5326 10.8337 22.5327 10.8502 22.5235C10.8653 22.5152 10.8895 22.5025 10.9247 22.4856C10.9596 22.4688 11.0021 22.4493 11.0532 22.4269L10.6528 21.5106ZM10.2201 21.7507L9.47049 21.0889L9.39713 21.1719L10.1467 21.8338L10.8963 22.4957L10.9697 22.4126L10.2201 21.7507ZM10.1467 21.8338L9.32764 21.2602L9.25684 21.3612L10.0759 21.9349L10.895 22.5086L10.9658 22.4075L10.1467 21.8338ZM10.0759 21.9349L9.42513 21.1757L9.34921 21.2407L10 22L10.6508 22.7593L10.7267 22.6942L10.0759 21.9349Z" fill="black"/>
</svg>

<svg xmlns="http://www.w3.org/2000/svg" fill="none" viewBox="0 0 22 32"><path fill="#FBF8F4" d="M0 16C0 7.163 7.163 0 16 0h6v32h-6C7.163 32 0 24.837 0 16z"/><path fill="#000" d="M10.65 9.24a1 1 0 10-1.3 1.52L10 10l.65-.76zm-.574.825l-.65.76.096.082.114.056.44-.898zm1.444 1.042l-.94.338.94-.338zm.146.406l.941-.337-.94.337zm.739.867l.12-.993-.12.993zm.895.109l-.12.992.12-.992zm.626.422l.9-.438-.9.438zm.357.735l.9-.437-.9.437zm.547.514l.37-.928-.37.929zm.736.294l-.37.929.37-.929zm.545.517l.903-.43-.903.43zm.353.741l-.903.43.903-.43zm-.027.5l.535.844-.535-.845zm-.407.257l-.535-.845.535.845zm-.473.391l-.698-.716.698.716zm-1.133.983l.515.858-.515-.858zm-.652.392l-.515-.857.515.857zm-.576.48l-.752-.659.752.66zm-.5.57l.752.66-.752-.66zm-.428.652l.899.438-.9-.438zm-.18.368l.9.438-.9-.438zm-.178.367l-.9-.438.9.438zm-.539.525l-.4-.917.4.917zm-.718.314l-.4-.917.4.917zm-.433.24l-.75-.662.75.662zm-.073.083l-.75-.662-.037.042-.032.046.819.574zm-.071.1l.65.76.097-.082.072-.103-.82-.574zm-.727-.693a1 1 0 001.302 1.518L10 22l-.65-.76zM10 10l-.65.76.075.064.65-.759.652-.76-.076-.064L10 10zm.076.065l-.44.898.65.318.44-.898.44-.898-.65-.318-.44.898zm.65.318l-.44.898c.158.078.246.142.29.181.04.038.022.034.003-.017l.941-.338.942-.337c-.229-.637-.779-1.031-1.297-1.285l-.44.898zm.794.724l-.94.338.145.406.941-.338.941-.337-.145-.406-.941.337zm.146.406l-.941.338.146.406.94-.337.942-.338-.146-.406-.94.337zm.146.407l-.941.337c.102.287.278.56.549.77.268.209.572.31.865.346l.12-.993.12-.993c-.005 0 .051.006.121.061a.331.331 0 01.107.134l-.941.338zm.593.46l-.12.993.447.054.12-.993.12-.992-.447-.055-.12.993zm.447.054l-.12.993.447.054.12-.992.121-.993-.447-.054-.12.992zm.448.055l-.12.992c.022.003-.009.003-.059-.03a.313.313 0 01-.095-.103l.9-.437.9-.438c-.286-.585-.811-.905-1.406-.977l-.12.993zm.626.422l-.9.437.18.368.899-.438.899-.437-.179-.367-.9.437zm.179.367l-.9.438.179.367.9-.437.899-.437-.179-.368-.9.437zm.178.368l-.899.437c.224.462.591.813 1.076 1.006l.37-.928.37-.93-.01-.004.005.003c.001.002.001.002 0 0a.137.137 0 01-.012-.021l-.9.437zm.547.514l-.37.93.368.146.37-.929.37-.929-.367-.146-.37.929zm.368.147l-.37.93.368.146.37-.929.37-.929-.367-.147-.37.93zm.368.147l-.37.929.008.003a.04.04 0 01-.006-.004l-.001-.001a.145.145 0 01.011.02l.903-.43.903-.43a1.995 1.995 0 00-1.077-1.016l-.37.929zm.545.517l-.903.43.176.37.903-.43.903-.43-.176-.37-.903.43zm.176.37l-.902.43.176.371.903-.43.903-.43-.177-.37-.903.43zm.177.371l-.903.43c.028.059-.023-.016-.014-.174a.771.771 0 01.355-.601l.535.844.535.845c.353-.224.55-.588.572-.98a1.65 1.65 0 00-.177-.794l-.903.43zm-.027.5l-.535-.845-.204.128.535.845.535.845.204-.129-.535-.845zm-.204.128l-.535-.845-.203.13.535.844.535.845.203-.129-.535-.845zm-.203.13l-.535-.846c-.218.138-.431.32-.636.52l.698.716.698.716a2.14 2.14 0 01.31-.262l-.535-.845zm-.473.39l-.698-.716-.27.263.699.716.698.716.27-.263-.699-.716zm-.269.263l-.698-.716-.27.262.699.716.698.716.27-.262-.699-.716zm-.269.262l-.698-.716c-.123.12-.26.226-.412.317l.515.857.515.858c.283-.17.543-.37.778-.6l-.698-.716zm-.595.458l-.515-.857-.326.196.515.857.515.857.326-.195-.515-.858zm-.326.196l-.515-.857-.326.196.515.857.515.857.326-.196-.515-.857zm-.326.196l-.515-.857c-.306.183-.578.41-.813.678l.752.66.752.659c.098-.112.21-.205.339-.283l-.515-.857zm-.576.48l-.752-.659-.25.285.752.66.752.659.25-.285-.752-.66zm-.25.285l-.752-.66-.25.285.752.66.752.66.25-.285-.752-.66zm-.25.285l-.751-.66c-.23.262-.421.555-.577.874l.9.438.899.438c.083-.171.178-.313.281-.43l-.752-.66zm-.428.652l-.9-.438-.178.368.899.438.899.438.179-.368-.9-.438zm-.18.368l-.898-.438-.18.367.9.438.899.438.179-.367-.9-.438zm-.178.367l-.9-.438a.13.13 0 01-.022.037l-.003.002a.093.093 0 01-.014.007l.4.917.4.916a2.055 2.055 0 001.038-1.003l-.9-.438zm-.539.525l-.4-.917-.36.157.401.917.4.916.36-.157-.4-.916zm-.359.157l-.4-.917-.36.157.4.917.401.916.36-.157-.4-.916zm-.36.157l-.4-.917a4.47 4.47 0 00-.372.18c-.08.045-.262.148-.41.315l.75.662.75.662a.795.795 0 01-.121.11c-.014.01-.015.01.001 0l.075-.037a4.03 4.03 0 01.128-.06l-.4-.915zm-.432.24l-.75-.662-.073.083.75.662.75.662.073-.083-.75-.662zm-.073.083l-.82-.574-.07.101.819.574.819.574.07-.102-.818-.573zm-.071.1l-.65-.758-.077.065L10 22l.65.76.077-.066-.651-.76z"/></svg>
